X: 27
T: Adieu ces bons vins de Lannoys
N: Derived from Duf3016-Adieu_ces_bons_vins_de_Lannoys.krn
C: Guillaume Du Fay
%%abc-version 2.0
%%abcx-abcm2ps-target-version 5.9.1 (29 Sep 2008)
%%abc-creator hum2abc beta
%%abcx-conversion-date 2019/02/16 20:31:47
%%abc-edited-by Jesse Rodin
%%abc-edited-by Alejandro Planchart
%%abcx-initial-encoding-date 2016/03/18/
%%humdrum-veritas 1693809915
%%humdrum-veritas-data 2118145343
%%linebreak <none>
%%barnumbers 0
L: 1/4
M: 3/1
Q: 1/2=120
V: 1 clef=treble
V: 2 clef=treble-8
V: 3 clef=treble-8
K: C
[V:1] D8E4 | 
[V:2] D8A4 | 
[V:3] d8c4 | 
[V:1] F6E2F2D2 | 
[V:2] D8d4 | 
[V:3] d8_B4 | 
[V:1] E4z4G4 | 
[V:2] c8_B4 | 
[V:3] A8G4 | 
[V:1] A2_B2A2G2G2F2 | 
[V:2] A4F4G4 | 
[V:3] c8_B4 | 
[V:1] A4z4A4 | 
[V:2] D8D4 | 
[V:3] A12 | 
[V:1] _B4A4G4 | 
[V:2] d4z4d4 | 
[V:3] G12 | 
[V:1] F8E4 | 
[V:2] d4c4B4 | 
[V:3] D8G4 | 
[V:1] D8^C4 | 
[V:2] A6G2G2F2 | 
[V:3] F8E4 | 
[V:1] D4z4F4 | 
[V:2] A8d4 | 
[V:3] D12 | 
[V:1] E8D4 | 
[V:2] c8d4 | 
[V:3] A8_B4 | 
[V:1] C8E4 | 
[V:2] e4d2c4B2 | 
[V:3] A8E4 | 
[V:1] D4C4B,4 | 
[V:2] A4z4G4 | 
[V:3] F8G4 | 
[V:1] A,4z4A,4 | 
[V:2] D8F4 | 
[V:3] A8D4 | 
[V:1] B,2C2D2D2^C2B,2 | 
[V:2] E4D4G4 | 
[V:3] G4F4E4 | 
[V:1] D8A4 | 
[V:2] A8A4 | 
[V:3] D8D4 | 
[V:1] A4G4F4 | 
[V:2] c8c4 | 
[V:3] A8A4 | 
[V:1] E6D2D2C2 | 
[V:2] B8A4 | 
[V:3] G8F4 | 
[V:1] E4z4z4 | 
[V:2] B2A2G2F2G2E2 | 
[V:3] E12 | 
[V:1] A12 | 
[V:2] D4z4F4 | 
[V:3] d12 | 
[V:1] G8A4 | 
[V:2] E4C4D4 | 
[V:3] e8d4 | 
[V:1] B4c4B4 | 
[V:2] z2E4F2G4 | 
[V:3] G8d4 | 
[V:1] A8G4 | 
[V:2] A8d4 | 
[V:3] c8_B4 | 
[V:1] A4z2D2E2F2 | 
[V:2] c4_B4A4 | 
[V:3] A4G4c4 | 
[V:1] G2A2G2^F2F2E2 | 
[V:2] G4D8 | 
[V:3] _B4A8 | 
[V:1] G4z4G4 | 
[V:2] d8d4 | 
[V:3] G12 | 
[V:1] A6G6 | 
[V:2] d4c4B4 | 
[V:3] D8E4 | 
[V:1] F6E6 | 
[V:2] A2D4E4F2 | 
[V:3] F4G4A4 | 
[V:1] D6^C6 | 
[V:2] G8A4 | 
[V:3] _B8A4 | 
[V:1] D4z2D2F2G2 | 
[V:2] _B4A8 | 
[V:3] G4D8 | 
[V:1] A4_B2A2G2F2 | 
[V:2] D4G2A2B4 | 
[V:3] d8d4 | 
[V:1] E2D2E2F2G2F2 | 
[V:2] c8B4 | 
[V:3] A8G4 | 
[V:1] D2A,2D2E2^C2B,2 | 
[V:2] A8G4 | 
[V:3] F8E4 | 
[V:1] D12 |]  
[V:2] A12 |]  
[V:3] D12 |]  



